public/img/email_icon.svg

<svg width="24" height="24" viewBox="0 0 24 24" fill="none" xmlns="http://www.w3.org/2000/svg">
<path d="M12 0C8.8174 0 5.76515 1.26428 3.51472 3.51472C1.26428 5.76515 0 8.8174 0 12C0 15.1826 1.26428 18.2348 3.51472 20.4853C5.76515 22.7357 8.8174 24 12 24C15.1826 24 18.2348 22.7357 20.4853 20.4853C22.7357 18.2348 24 15.1826 24 12C24 8.8174 22.7357 5.76515 20.4853 3.51472C18.2348 1.26428 15.1826 0 12 0V0ZM6.71289 5.95703H17.2871C17.888 5.95703 18.4638 6.19617 18.8887 6.62109C19.3136 7.04602 19.5527 7.62172 19.5527 8.22266V15.7773C19.5527 16.3782 19.3136 16.954 18.8887 17.3789C18.4638 17.8038 17.888 18.043 17.2871 18.043H6.71289C6.11196 18.043 5.53625 17.8038 5.11133 17.3789C4.6864 16.954 4.44727 16.3782 4.44727 15.7773V8.22266C4.44727 7.62172 4.6864 7.04602 5.11133 6.62109C5.53625 6.19617 6.11196 5.95703 6.71289 5.95703ZM7.21875 7.46875L12 11.0566L16.7812 7.46875H7.21875ZM5.95703 8.41211V15.7773C5.95703 15.9776 6.03805 16.1689 6.17969 16.3105C6.32133 16.4522 6.51258 16.5312 6.71289 16.5312H17.2871C17.4874 16.5312 17.6787 16.4522 17.8203 16.3105C17.9619 16.1689 18.043 15.9776 18.043 15.7773V8.41211L12.4531 12.6035C12.3224 12.7015 12.1634 12.7559 12 12.7559C11.8366 12.7559 11.6776 12.7015 11.5469 12.6035L5.95703 8.41211Z" fill="#DC7354"/>
</svg>

<?xml version="1.0" encoding="utf-8"?>
<!-- Generator: Adobe Illustrator 24.3.0, SVG Export Plug-In . SVG Version: 6.00 Build 0)  -->
<svg version="1.1" id="Layer_1" xmlns="http://www.w3.org/2000/svg" xmlns:xlink="http://www.w3.org/1999/xlink" x="0px" y="0px"
	 viewBox="0 0 24 24" style="enable-background:new 0 0 24 24;" xml:space="preserve">
<path d="M12,0C8.8,0,5.8,1.3,3.5,3.5C1.3,5.8,0,8.8,0,12s1.3,6.2,3.5,8.5C5.8,22.7,8.8,24,12,24s6.2-1.3,8.5-3.5
	c2.3-2.3,3.5-5.3,3.5-8.5s-1.3-6.2-3.5-8.5C18.2,1.3,15.2,0,12,0L12,0z M6.7,6h10.6c0.6,0,1.2,0.2,1.6,0.7c0.4,0.4,0.7,1,0.7,1.6
	v7.6c0,0.6-0.2,1.2-0.7,1.6s-1,0.7-1.6,0.7H6.7c-0.6,0-1.2-0.2-1.6-0.7c-0.4-0.4-0.7-1-0.7-1.6V8.2c0-0.6,0.2-1.2,0.7-1.6
	C5.5,6.2,6.1,6,6.7,6z M7.2,7.5l4.8,3.6l4.8-3.6H7.2z M6,8.4v7.4C6,16,6,16.2,6.2,16.3c0.1,0.1,0.3,0.2,0.5,0.2h10.6
	c0.2,0,0.4-0.1,0.5-0.2C18,16.2,18,16,18,15.8V8.4l-5.6,4.2c-0.1,0.1-0.3,0.2-0.5,0.2s-0.3-0.1-0.5-0.2L6,8.4z"/>
</svg>
